src/Assets/cheese_ico.svg

<?xml version="1.0" encoding="UTF-8" standalone="no" ?>
<!DOCTYPE svg PUBLIC "-//W3C//DTD SVG 1.1//EN" "http://www.w3.org/Graphics/SVG/1.1/DTD/svg11.dtd">
<svg xmlns="http://www.w3.org/2000/svg" xmlns:xlink="http://www.w3.org/1999/xlink" version="1.1" width="306" height="171" viewBox="0 0 306 171" xml:space="preserve">
<desc>Created with Fabric.js 3.6.3</desc>
<defs>
</defs>
<g transform="matrix(1 0 0 1 91 171)"  >
<g style=""   >
		<g transform="matrix(0.06 0 0 -0.06 62.83 -85.15)" id="9"  >
<path style="stroke: none; stroke-width: 1; stroke-dasharray: none; stroke-linecap: butt; stroke-dashoffset: 0; stroke-linejoin: miter; stroke-miterlimit: 4; fill: rgb(255,221,51); fill-rule: nonzero; opacity: 1;" vector-effect="non-scaling-stroke"  transform=" translate(-17788.11, -17300.77)" d="M 19531.6 17707.3 C 19464.5 17694.1 19366.899999999998 17680.8 19336.399999999998 17727.1 C 19305.899999999998 17773.399999999998 19385.899999999998 17845 19440.1 17866 C 19525.5 17899.1 19677.899999999998 17866 19684 17819.7 C 19690.1 17773.4 19598.7 17720.5 19531.6 17707.3 M 19238.5 17588.3 C 19126.4 17467.3 19040.5 17409.7 18892 17475.8 C 18807.9 17513.3 18811.8 17641.6 18832.9 17712 C 18866.2 17822.9 18930.100000000002 17898.2 19110 17857.3 C 19217.3 17832.899999999998 19330.4 17687.399999999998 19238.5 17588.3 M 18482.3 16890.6 C 18454.3 16775.399999999998 18227.6 16705.6 18026.399999999998 16664.6 C 17773.8 16613.1 17658.899999999998 16855.5 17800.499999999996 16984.899999999998 C 17942.099999999995 17114.3 18232.599999999995 17110.699999999997 18355.999999999996 17077.8 C 18479.399999999998 17044.8 18492.699999999997 16933.399999999998 18482.299999999996 16890.6 M 17640.499999999996 18295.899999999998 C 17576.799999999996 18381.8 17650.499999999996 18454.699999999997 17689.999999999996 18474.399999999998 C 17795.999999999996 18527.3 18010.399999999998 18446.3 18184.899999999998 18361.999999999996 C 18404.1 18256.199999999997 18305.1 18051.199999999997 18107.199999999997 18051.199999999997 C 17909.199999999997 18051.199999999997 17704.1 18209.899999999998 17640.499999999996 18295.899999999998 M 17272.799999999996 17647.8 C 17194.999999999996 17634.5 17081.899999999994 17621.3 17046.499999999996 17667.6 C 17011.099999999995 17713.899999999998 17103.899999999998 17785.5 17166.699999999997 17806.5 C 17265.699999999997 17839.6 17442.499999999996 17806.5 17449.6 17760.2 C 17456.6 17713.9 17350.6 17661 17272.8 17647.8 M 16872.7 17510.8 C 16841.2 17461.399999999998 16649.8 17365.1 16416.9 17369.899999999998 C 16184.100000000002 17374.8 16029.000000000002 17418.399999999998 16055.300000000001 17486.499999999996 C 16109.800000000001 17627.299999999996 16342.900000000001 17667.599999999995 16421.9 17675.899999999998 C 16699.300000000003 17704.999999999996 16922.2 17588.499999999996 16872.7 17510.8 M 17581.5 18711.399999999998 C 17402.5 18729.399999999998 15140.9 17461.699999999997 15248.2 17292.899999999998 C 15296.5 17216.8 15831.400000000001 16926.199999999997 16430 16628.999999999996 C 16539.4 16717.199999999997 16670.9 16786.799999999996 16806.1 16799.799999999996 C 16984.1 16816.899999999994 17127.3 16727.999999999996 17094.6 16544.999999999996 C 17083.699999999997 16484.499999999996 17054.1 16414.399999999998 17012.899999999998 16347.399999999996 C 17561.1 16089.899999999996 18048.499999999996 15883.499999999996 18145.6 15890.099999999997 C 18320 15901.899999999996 18307.6 16136.399999999996 18560.899999999998 16347.099999999997 C 19019.8 16728.799999999996 19532.399999999998 17173.499999999996 19903.999999999996 17404.899999999998 C 20041.899999999998 17490.8 20327.499999999996 17561.8 20331.699999999997 17691.1 C 20337.199999999997 17859.399999999998 17982.299999999996 18671 17581.499999999996 18711.399999999998" stroke-linecap="round" />
</g>
		<g transform="matrix(0.06 0 0 -0.06 138.34 -57.15)" id="P0293zvSvx07VmO6kfP3r"  >
<path style="stroke: none; stroke-width: 1; stroke-dasharray: none; stroke-linecap: butt; stroke-dashoffset: 0; stroke-linejoin: miter; stroke-miterlimit: 4; fill: rgb(239,156,7); fill-rule: nonzero; opacity: 1;" vector-effect="non-scaling-stroke"  transform=" translate(-19105, -16812.43)" d="M 20342.8 17688.3 C 20343.2 17701.2 20329.5 17718.1 20303.8 17738.1 C 20288.5 17722.699999999997 20307 17677.3 20288.8 17661.699999999997 C 20151.399999999998 17543.499999999996 19997.399999999998 17506.899999999998 19833.2 17416.199999999997 C 19437.2 17197.299999999996 19087.4 16905.399999999998 18741 16614.799999999996 C 18604.9 16500.499999999996 18498.5 16393.699999999997 18375.9 16259.199999999995 C 18309.7 16186.599999999995 18285.7 16001.499999999995 18110.7 15967.699999999995 C 18087.100000000002 15963.099999999995 18035.9 15974.199999999995 17867.2 15974.199999999995 C 18018.9 15913.499999999995 18055.8 15882.699999999995 18156.7 15887.199999999995 C 18331.4 15895.099999999995 18318.8 16133.599999999995 18572.100000000002 16344.299999999996 C 19030.9 16725.999999999996 19543.500000000004 17170.699999999997 19915.100000000002 17402.099999999995 C 20053.000000000004 17487.999999999996 20338.600000000002 17558.999999999996 20342.800000000003 17688.299999999996" stroke-linecap="round" />
</g>
		<g transform="matrix(0.06 0 0 -0.06 -13.03 -99.89)" id="WNAQq_a66RYFzJnYX0rtH"  >
<path style="stroke: none; stroke-width: 1; stroke-dasharray: none; stroke-linecap: butt; stroke-dashoffset: 0; stroke-linejoin: miter; stroke-miterlimit: 4; fill: rgb(239,156,7); fill-rule: nonzero; opacity: 1;" vector-effect="non-scaling-stroke"  transform=" translate(-16464.94, -17557.84)" d="M 16076.5 17453.4 C 16131 17594.2 16364.2 17634.5 16443.1 17642.800000000003 C 16644.399999999998 17663.9 16816.8 17608.4 16877.5 17546.700000000004 C 16855.9 17619.400000000005 16658.9 17700.800000000003 16421.9 17675.900000000005 C 16342.900000000001 17667.600000000006 16109.800000000001 17627.300000000007 16055.300000000001 17486.500000000004 C 16047.900000000001 17467.300000000003 16054.800000000001 17450.100000000002 16073.800000000001 17435.200000000004 C 16073.2 17441.000000000004 16074.1 17447.100000000006 16076.500000000002 17453.400000000005" stroke-linecap="round" />
</g>
		<g transform="matrix(0.06 0 0 -0.06 31.63 -110.02)" id="Mc4oQaFQ-3aik8FNEhVku"  >
<path style="stroke: none; stroke-width: 1; stroke-dasharray: none; stroke-linecap: butt; stroke-dashoffset: 0; stroke-linejoin: miter; stroke-miterlimit: 4; fill: rgb(239,156,7); fill-rule: nonzero; opacity: 1;" vector-effect="non-scaling-stroke"  transform=" translate(-17243.76, -17734.54)" d="M 17195 17780 C 17271.2 17805.5 17393.3 17791.8 17448.8 17763 C 17435.2 17807.8 17263.7 17838.9 17166.7 17806.5 C 17103.9 17785.5 17011.2 17713.9 17046.5 17667.6 C 17052.4 17659.899999999998 17060.4 17653.899999999998 17070 17649.199999999997 C 17049.9 17695.399999999998 17135.7 17760.199999999997 17195 17779.999999999996" stroke-linecap="round" />
</g>
		<g transform="matrix(0.06 0 0 -0.06 161.31 -113.37)" id="A5zUwQ1kemix6JifYeV5P"  >
<path style="stroke: none; stroke-width: 1; stroke-dasharray: none; stroke-linecap: butt; stroke-dashoffset: 0; stroke-linejoin: miter; stroke-miterlimit: 4; fill: rgb(239,156,7); fill-rule: nonzero; opacity: 1;" vector-effect="non-scaling-stroke"  transform=" translate(-19505.74, -17792.97)" d="M 19474.6 17834.2 C 19535.699999999997 17857.8 19631.1 17847.600000000002 19682.699999999997 17822.9 C 19672.499999999996 17868.2 19523.299999999996 17899.800000000003 19439.199999999997 17867.300000000003 C 19384.999999999996 17846.300000000003 19304.999999999996 17774.700000000004 19335.499999999996 17728.4 C 19342.499999999996 17717.7 19353.199999999997 17710.300000000003 19366.099999999995 17705.300000000003 C 19351.399999999994 17751.300000000003 19424.099999999995 17814.700000000004 19474.599999999995 17834.200000000004" stroke-linecap="round" />
</g>
		<g transform="matrix(0.06 0 0 -0.06 134.18 -107.66)" id="JraC6e7KhlzE-2mhPr95G"  >
<path style="stroke: none; stroke-width: 1; stroke-dasharray: none; stroke-linecap: butt; stroke-dashoffset: 0; stroke-linejoin: miter; stroke-miterlimit: 4; fill: rgb(239,156,7); fill-rule: nonzero; opacity: 1;" vector-effect="non-scaling-stroke"  transform=" translate(-19032.59, -17693.44)" d="M 18854.1 17676 C 18887.399999999998 17786.9 18951.3 17862.3 19131.199999999997 17821.4 C 19175.399999999998 17811.300000000003 19220.6 17780.7 19252.1 17741.2 C 19225.6 17801.8 19163.3 17853.9 19102.899999999998 17867.7 C 18923.1 17908.600000000002 18859.1 17833.2 18825.899999999998 17722.3 C 18807.8 17662.2 18802.399999999998 17559.8 18853.699999999997 17507.899999999998 C 18834.199999999997 17561.499999999996 18840.6 17630.699999999997 18854.1 17675.999999999996" stroke-linecap="round" />
</g>
		<g transform="matrix(0.06 0 0 -0.06 71.18 -146.28)" id="HsiWgB2SQD9F86qdY1D6G"  >
<path style="stroke: none; stroke-width: 1; stroke-dasharray: none; stroke-linecap: butt; stroke-dashoffset: 0; stroke-linejoin: miter; stroke-miterlimit: 4; fill: rgb(239,156,7); fill-rule: nonzero; opacity: 1;" vector-effect="non-scaling-stroke"  transform=" translate(-17933.59, -18367.03)" d="M 17664.8 18272.8 C 17601.1 18358.7 17674.8 18431.6 17714.3 18451.3 C 17820.3 18504.2 18034.6 18423.2 18209.2 18338.899999999998 C 18229.8 18328.899999999998 18247.600000000002 18318.1 18262.7 18306.699999999997 C 18242.600000000002 18330.499999999996 18213.5 18352.899999999998 18173.9 18371.899999999998 C 17999.300000000003 18456.199999999997 17785 18537.3 17678.9 18484.399999999998 C 17639.4 18464.699999999997 17565.800000000003 18391.8 17629.4 18305.8 C 17645 18284.7 17669.2 18259.2 17699.7 18232.8 C 17685.600000000002 18247.1 17673.7 18260.7 17664.8 18272.8" stroke-linecap="round" />
</g>
		<g transform="matrix(0.06 0 0 -0.06 80.71 -63.09)" id="ftDJ_doc6i_cA5EEadvSL"  >
<path style="stroke: none; stroke-width: 1; stroke-dasharray: none; stroke-linecap: butt; stroke-dashoffset: 0; stroke-linejoin: miter; stroke-miterlimit: 4; fill: rgb(239,156,7); fill-rule: nonzero; opacity: 1;" vector-effect="non-scaling-stroke"  transform=" translate(-18099.94, -16916.08)" d="M 17825.5 16949.8 C 17967.1 17079.2 18257.5 17075.6 18380.9 17042.6 C 18417.7 17032.8 18444.600000000002 17016 18464.100000000002 16996.1 C 18446.2 17032.1 18412.300000000003 17066.399999999998 18352.600000000002 17082.3 C 18229.300000000003 17115.2 17938.800000000003 17118.899999999998 17797.2 16989.5 C 17715.4 16914.7 17719.2 16802.3 17785.600000000002 16730.5 C 17748.7 16799.7 17757.600000000002 16887.7 17825.500000000004 16949.8" stroke-linecap="round" />
</g>
		<g transform="matrix(0.06 0 0 -0.06 -39.55 -94.95)" id="xbzYdVFHQfyTDEZygrcqt"  >
<path style="stroke: none; stroke-width: 1; stroke-dasharray: none; stroke-linecap: butt; stroke-dashoffset: 0; stroke-linejoin: miter; stroke-miterlimit: 4; fill: rgb(252,229,102); fill-rule: nonzero; opacity: 1;" vector-effect="non-scaling-stroke"  transform=" translate(-16002.36, -17471.75)" d="M 16358.6 16850.3 C 16302.2 16850.3 16200.5 16930.399999999998 16177 16946.5 C 16073.6 17017.3 15961.2 17064.5 15846.8 17118.7 C 15783.8 17148.5 15718.9 17181.3 15652.5 17205.8 C 15603 17223.899999999998 15541.6 17234.7 15497.7 17264 C 15297.400000000001 17397.7 15682.2 17593.7 15784.5 17651.2 C 15898.6 17715.4 15999.4 17801.600000000002 16110.9 17864.9 C 16187.6 17908.5 16265.4 17984.300000000003 16351.199999999999 18009.300000000003 L 16398.3 18053.4 C 16399 18053.100000000002 16399.7 18052.9 16400.7 18052.9 C 16408.600000000002 18052.9 16427.2 18063 16447.7 18073.100000000002 C 16468.3 18083.100000000002 16490.8 18093.2 16506.7 18093.2 C 16506.7 18093.2 16506.7 18093.2 16506.8 18093.2 C 16588.6 18093.100000000002 16573 18042.100000000002 16519.8 18006.100000000002 C 16408.5 17930.800000000003 16291.699999999999 17862.100000000002 16176.699999999999 17787.9 C 16082.4 17727 15980.099999999999 17675.800000000003 15898.499999999998 17599.5 C 15849.299999999997 17553.4 15779.399999999998 17458.7 15765.499999999998 17392.1 C 15745.699999999999 17297.3 15867.299999999997 17254.3 15939.899999999998 17214.699999999997 C 16038.199999999997 17161.199999999997 16123.399999999998 17089.6 16222.899999999998 17038.299999999996 C 16264.599999999999 17016.699999999997 16410.1 16933.099999999995 16393.8 16876.199999999997 C 16388.5 16857.6 16375.599999999999 16850.299999999996 16358.599999999999 16850.299999999996" stroke-linecap="round" />
</g>
</g>
</g>
</svg>

<svg height="171" viewBox="0 0 306 171" width="306" xmlns="http://www.w3.org/2000/svg"><path d="m19531.6 17707.3c-67.1-13.2-164.7-26.5-195.2 19.8s49.5 117.9 103.7 138.9c85.4 33.1 237.8 0 243.9-46.3s-85.3-99.2-152.4-112.4m-293.1-119c-112.1-121-198-178.6-346.5-112.5-84.1 37.5-80.2 165.8-59.1 236.2 33.3 110.9 97.2 186.2 277.1 145.3 107.3-24.4 220.4-169.9 128.5-269m-756.2-697.7c-28-115.2-254.7-185-455.9-226-252.6-51.5-367.5 190.9-225.9 320.3s432.1 125.8 555.5 92.9c123.4-33 136.7-144.4 126.3-187.2m-841.8 1405.3c-63.7 85.9 10 158.8 49.5 178.5 106 52.9 320.4-28.1 494.9-112.4 219.2-105.8 120.2-310.8-77.7-310.8-198 0-403.1 158.7-466.7 244.7m-367.7-648.1c-77.8-13.3-190.9-26.5-226.3 19.8s57.4 117.9 120.2 138.9c99 33.1 275.8 0 282.9-46.3 7-46.3-99-99.2-176.8-112.4m-400.1-137c-31.5-49.4-222.9-145.7-455.8-140.9-232.8 4.9-387.9 48.5-361.6 116.6 54.5 140.8 287.6 181.1 366.6 189.4 277.4 29.1 500.3-87.4 450.8-165.1m708.8 1200.6c-179 18-2440.6-1249.7-2333.3-1418.5 48.3-76.1 583.2-366.7 1181.8-663.9 109.4 88.2 240.9 157.8 376.1 170.8 178 17.1 321.2-71.8 288.5-254.8-10.9-60.5-40.5-130.6-81.7-197.6 548.2-257.5 1035.6-463.9 1132.7-457.3 174.4 11.8 162 246.3 415.3 457 458.9 381.7 971.5 826.4 1343.1 1057.8 137.9 85.9 423.5 156.9 427.7 286.2 5.5 168.3-2349.4 979.9-2750.2 1020.3" fill="#fd3" transform="matrix(.06 0 0 -.06 -913.4566 1123.8962)"/><g fill="#ef9c07"><path d="m20342.8 17688.3c.4 12.9-13.3 29.8-39 49.8-15.3-15.4 3.2-60.8-15-76.4-137.4-118.2-291.4-154.8-455.6-245.5-396-218.9-745.8-510.8-1092.2-801.4-136.1-114.3-242.5-221.1-365.1-355.6-66.2-72.6-90.2-257.7-265.2-291.5-23.6-4.6-74.8 6.5-243.5 6.5 151.7-60.7 188.6-91.5 289.5-87 174.7 7.9 162.1 246.4 415.4 457.1 458.8 381.7 971.4 826.4 1343 1057.8 137.9 85.9 423.5 156.9 427.7 286.2" transform="matrix(.06 0 0 -.06 -916.96 1122.5958)"/><path d="m16076.5 17453.4c54.5 140.8 287.7 181.1 366.6 189.4 201.3 21.1 373.7-34.4 434.4-96.1-21.6 72.7-218.6 154.1-455.6 129.2-79-8.3-312.1-48.6-366.6-189.4-7.4-19.2-.5-36.4 18.5-51.3-.6 5.8.3 11.9 2.7 18.2" transform="matrix(.06 0 0 -.06 -909.9264 1124.5804)"/><path d="m17195 17780c76.2 25.5 198.3 11.8 253.8-17-13.6 44.8-185.1 75.9-282.1 43.5-62.8-21-155.5-92.6-120.2-138.9 5.9-7.7 13.9-13.7 23.5-18.4-20.1 46.2 65.7 111 125 130.8" transform="matrix(.06 0 0 -.06 -911.9956 1125.0524)"/><path d="m19474.6 17834.2c61.1 23.6 156.5 13.4 208.1-11.3-10.2 45.3-159.4 76.9-243.5 44.4-54.2-21-134.2-92.6-103.7-138.9 7-10.7 17.7-18.1 30.6-23.1-14.7 46 58 109.4 108.5 128.9" transform="matrix(.06 0 0 -.06 -918.0344 1125.2082)"/><path d="m18854.1 17676c33.3 110.9 97.2 186.3 277.1 145.4 44.2-10.1 89.4-40.7 120.9-80.2-26.5 60.6-88.8 112.7-149.2 126.5-179.8 40.9-243.8-34.5-277-145.4-18.1-60.1-23.5-162.5 27.8-214.4-19.5 53.6-13.1 122.8.4 168.1" transform="matrix(.06 0 0 -.06 -916.7754 1124.9464)"/><path d="m17664.8 18272.8c-63.7 85.9 10 158.8 49.5 178.5 106 52.9 320.3-28.1 494.9-112.4 20.6-10 38.4-20.8 53.5-32.2-20.1 23.8-49.2 46.2-88.8 65.2-174.6 84.3-388.9 165.4-495 112.5-39.5-19.7-113.1-92.6-49.5-178.6 15.6-21.1 39.8-46.6 70.3-73-14.1 14.3-26 27.9-34.9 40" transform="matrix(.06 0 0 -.06 -913.8354 1126.7418)"/><path d="m17825.5 16949.8c141.6 129.4 432 125.8 555.4 92.8 36.8-9.8 63.7-26.6 83.2-46.5-17.9 36-51.8 70.3-111.5 86.2-123.3 32.9-413.8 36.6-555.4-92.8-81.8-74.8-78-187.2-11.6-259-36.9 69.2-28 157.2 39.9 219.3" transform="matrix(.06 0 0 -.06 -914.2864 1122.8748)"/></g><path d="m16358.6 16850.3c-56.4 0-158.1 80.1-181.6 96.2-103.4 70.8-215.8 118-330.2 172.2-63 29.8-127.9 62.6-194.3 87.1-49.5 18.1-110.9 28.9-154.8 58.2-200.3 133.7 184.5 329.7 286.8 387.2 114.1 64.2 214.9 150.4 326.4 213.7 76.7 43.6 154.5 119.4 240.3 144.4l47.1 44.1c.7-.3 1.4-.5 2.4-.5 7.9 0 26.5 10.1 47 20.2 20.6 10 43.1 20.1 59 20.1h.1c81.8-.1 66.2-51.1 13-87.1-111.3-75.3-228.1-144-343.1-218.2-94.3-60.9-196.6-112.1-278.2-188.4-49.2-46.1-119.1-140.8-133-207.4-19.8-94.8 101.8-137.8 174.4-177.4 98.3-53.5 183.5-125.1 283-176.4 41.7-21.6 187.2-105.2 170.9-162.1-5.3-18.6-18.2-25.9-35.2-25.9" fill="#fce566" transform="matrix(.06 0 0 -.06 -908.6916 1124.355)"/></svg>
